img/instagram.svg

<svg width="32" height="33" viewBox="0 0 32 33" fill="none" xmlns="http://www.w3.org/2000/svg">
<path d="M16 19.3C14.5 19.3 13.2 18.1 13.2 16.5C13.2 15 14.4 13.7 16 13.7C17.5 13.7 18.8 14.9 18.8 16.5C18.8 18 17.5 19.3 16 19.3Z" fill="#C0B7E8"/>
<path fill-rule="evenodd" clip-rule="evenodd" d="M19.4 9.7H12.6C11.8 9.8 11.4 9.9 11.1 10C10.7 10.1 10.4 10.3 10.1 10.6C9.86261 10.8374 9.75045 11.0748 9.61489 11.3617C9.57916 11.4373 9.5417 11.5166 9.5 11.6C9.48453 11.6464 9.46667 11.6952 9.44752 11.7475C9.34291 12.0333 9.2 12.4238 9.2 13.1V19.9C9.3 20.7 9.4 21.1 9.5 21.4C9.6 21.8 9.8 22.1 10.1 22.4C10.3374 22.6374 10.5748 22.7495 10.8617 22.8851C10.9374 22.9209 11.0165 22.9583 11.1 23C11.1464 23.0155 11.1952 23.0333 11.2475 23.0525C11.5333 23.1571 11.9238 23.3 12.6 23.3H19.4C20.2 23.2 20.6 23.1 20.9 23C21.3 22.9 21.6 22.7 21.9 22.4C22.1374 22.1626 22.2495 21.9252 22.3851 21.6383C22.4209 21.5626 22.4583 21.4835 22.5 21.4C22.5155 21.3536 22.5333 21.3048 22.5525 21.2525C22.6571 20.9667 22.8 20.5762 22.8 19.9V13.1C22.7 12.3 22.6 11.9 22.5 11.6C22.4 11.2 22.2 10.9 21.9 10.6C21.6626 10.3626 21.4252 10.2505 21.1383 10.1149C21.0627 10.0792 20.9833 10.0417 20.9 10C20.8536 9.98453 20.8048 9.96666 20.7525 9.94752C20.4667 9.8429 20.0762 9.7 19.4 9.7ZM16 12.2C13.6 12.2 11.7 14.1 11.7 16.5C11.7 18.9 13.6 20.8 16 20.8C18.4 20.8 20.3 18.9 20.3 16.5C20.3 14.1 18.4 12.2 16 12.2ZM21.4 12.1C21.4 12.6523 20.9523 13.1 20.4 13.1C19.8477 13.1 19.4 12.6523 19.4 12.1C19.4 11.5477 19.8477 11.1 20.4 11.1C20.9523 11.1 21.4 11.5477 21.4 12.1Z" fill="#C0B7E8"/>
<path fill-rule="evenodd" clip-rule="evenodd" d="M0 16.5C0 7.66344 7.16344 0.5 16 0.5C24.8366 0.5 32 7.66344 32 16.5C32 25.3366 24.8366 32.5 16 32.5C7.16344 32.5 0 25.3366 0 16.5ZM12.6 8.2H19.4C20.3 8.3 20.9 8.4 21.4 8.6C22 8.9 22.4 9.1 22.9 9.6C23.4 10.1 23.7 10.6 23.9 11.1C24.1 11.6 24.3 12.2 24.3 13.1V19.9C24.2 20.8 24.1 21.4 23.9 21.9C23.6 22.5 23.4 22.9 22.9 23.4C22.4 23.9 21.9 24.2 21.4 24.4C20.9 24.6 20.3 24.8 19.4 24.8H12.6C11.7 24.7 11.1 24.6 10.6 24.4C10 24.1 9.6 23.9 9.1 23.4C8.6 22.9 8.3 22.4 8.1 21.9C7.9 21.4 7.7 20.8 7.7 19.9V13.1C7.8 12.2 7.9 11.6 8.1 11.1C8.4 10.5 8.6 10.1 9.1 9.6C9.6 9.1 10.1 8.8 10.6 8.6C11.1 8.4 11.7 8.2 12.6 8.2Z" fill="#C0B7E8"/>
</svg>

<svg width="32" height="33" fill="none" xmlns="http://www.w3.org/2000/svg"><path d="M16 19.3c-1.5 0-2.8-1.2-2.8-2.8 0-1.5 1.2-2.8 2.8-2.8 1.5 0 2.8 1.2 2.8 2.8 0 1.5-1.3 2.8-2.8 2.8z" fill="#C0B7E8"/><path fill-rule="evenodd" clip-rule="evenodd" d="M19.4 9.7h-6.8c-.8.1-1.2.2-1.5.3-.4.1-.7.3-1 .6-.237.237-.35.475-.485.762-.036.075-.073.155-.115.238a5.48 5.48 0 0 1-.052.148A3.53 3.53 0 0 0 9.2 13.1v6.8c.1.8.2 1.2.3 1.5.1.4.3.7.6 1 .237.237.475.35.762.485.075.036.155.073.238.115.046.015.095.033.148.052a3.53 3.53 0 0 0 1.352.248h6.8c.8-.1 1.2-.2 1.5-.3.4-.1.7-.3 1-.6.237-.237.35-.475.485-.762.036-.075.073-.155.115-.238.015-.046.033-.095.052-.147A3.53 3.53 0 0 0 22.8 19.9v-6.8c-.1-.8-.2-1.2-.3-1.5-.1-.4-.3-.7-.6-1-.237-.237-.475-.35-.762-.485A11.315 11.315 0 0 1 20.9 10c-.046-.015-.095-.033-.147-.052A3.53 3.53 0 0 0 19.4 9.7zM16 12.2c-2.4 0-4.3 1.9-4.3 4.3s1.9 4.3 4.3 4.3 4.3-1.9 4.3-4.3-1.9-4.3-4.3-4.3zm5.4-.1a1 1 0 1 1-2 0 1 1 0 0 1 2 0z" fill="#C0B7E8"/><path fill-rule="evenodd" clip-rule="evenodd" d="M0 16.5C0 7.663 7.163.5 16 .5s16 7.163 16 16-7.163 16-16 16-16-7.163-16-16zm12.6-8.3h6.8c.9.1 1.5.2 2 .4.6.3 1 .5 1.5 1s.8 1 1 1.5c.2.5.4 1.1.4 2v6.8c-.1.9-.2 1.5-.4 2-.3.6-.5 1-1 1.5s-1 .8-1.5 1c-.5.2-1.1.4-2 .4h-6.8c-.9-.1-1.5-.2-2-.4-.6-.3-1-.5-1.5-1s-.8-1-1-1.5c-.2-.5-.4-1.1-.4-2v-6.8c.1-.9.2-1.5.4-2 .3-.6.5-1 1-1.5s1-.8 1.5-1c.5-.2 1.1-.4 2-.4z" fill="#C0B7E8"/></svg>
